X:99
T:Dixie
S:American Veteran Fifer #99
C:By Dan Emmet.
M:2/4
L:1/8
Q:1/8=180
K:G 
%%MIDI program 72
%%MIDI transpose 8
%%MIDI ratio 3 1
d/B/ | GG G/A/B/c/ | dddB | ee e>d | ed e/f/g/a/ |
b3g/d/ | g3d/B/ | d3A/B/ | G3 :|
|: d | gbag | eg2e | a3e | a3d |
gbag | ef g>e | dB g>B | BA zd |
G3B | A3c | Bd b>a | ag zd |
G3B | A3c | Bd b>a | agz :|


